dist/files/product_lastMile_auto.svg

<svg width="142" height="142" viewBox="0 0 142 142" fill="none" xmlns="http://www.w3.org/2000/svg">
<g filter="url(#filter0_d_5335_2939)">
<circle cx="67" cy="68" r="59" fill="#152968"/>
</g>
<path d="M90.0147 56.0623H92.2959C92.9231 56.0623 93.4365 55.5498 93.4365 54.9237C93.4365 54.2976 92.9231 53.7852 92.2959 53.7852H90.0147C89.3875 53.7852 88.874 54.2976 88.874 54.9237C88.874 55.5498 89.3875 56.0623 90.0147 56.0623Z" fill="white"/>
<path d="M84.5395 66.9984L86.1368 68.5926C86.5924 69.0483 87.3342 69.0483 87.733 68.5926C88.1897 68.137 88.1897 67.4541 87.733 66.9984L86.1368 65.4042C85.6801 64.9486 84.9961 64.9486 84.5395 65.4042C84.0838 65.8588 84.0838 66.5428 84.5395 66.9984Z" fill="white"/>
<path d="M61.9559 44.4403C62.4125 44.8959 63.1533 44.8959 63.5531 44.4403C64.0088 43.9846 64.0088 43.3017 63.5531 42.8461L61.9559 41.2519C61.5002 40.7962 60.8152 40.7962 60.3596 41.2519C59.9029 41.7075 59.9029 42.3904 60.3596 42.8461L61.9559 44.4403Z" fill="white"/>
<mask id="mask0_5335_2939" style="mask-type:luminance" maskUnits="userSpaceOnUse" x="76" y="94" width="14" height="8">
<path d="M76.9976 94.2695H89.9578V101.618H76.9976V94.2695Z" fill="white"/>
</mask>
<g mask="url(#mask0_5335_2939)">
<path d="M87.6764 94.2695C87.6764 94.44 87.7332 94.6105 87.7332 94.782C87.7332 97.2875 85.6803 99.3383 83.1707 99.3383C81.3461 99.3383 79.7488 98.2555 79.008 96.6613L77.2402 98.2555C78.4377 100.25 80.6043 101.615 83.1139 101.615C86.8777 101.615 89.9577 98.5407 89.9577 94.782C89.9577 94.6105 89.9577 94.44 89.9577 94.2695H87.6764Z" fill="white"/>
</g>
<path d="M72.9062 70.2446C72.9062 68.5358 71.5372 67.1689 69.8831 67.1689C69.2559 67.1689 67.4882 66.8847 66.2897 66.6564L63.2108 63.4102C62.5258 63.8658 61.785 64.2078 60.9864 64.3782L64.9218 68.4789C65.0922 68.6504 65.3206 68.7641 65.5489 68.8209C65.8909 68.8777 68.7993 69.3902 69.8831 69.3902C70.2819 69.3902 70.6249 69.7322 70.6249 70.1878C70.6249 70.5298 70.1682 70.9276 69.5411 70.9854L63.8379 70.4719L59.5038 67.0552C58.9903 66.6564 58.3063 66.7701 57.9065 67.2257C57.5077 67.7392 57.6213 68.4221 58.078 68.8209L62.6405 72.4092C62.811 72.5228 63.0393 72.6365 63.2676 72.6365C63.2676 72.6365 69.4264 73.2057 69.4843 73.2057C71.3657 73.2626 72.9062 71.8957 72.9062 70.2446Z" fill="white"/>
<path d="M55.6817 55.209L55.3398 56.86C55.0546 58.1133 55.2829 59.3665 55.9669 60.3915C56.5951 61.3595 57.5642 61.9857 58.648 62.214C61.0429 62.6696 63.381 60.9607 63.8945 58.6257L64.2365 56.9737C64.5216 55.7215 64.2933 54.4682 63.6093 53.4433C62.9822 52.4752 62.0131 51.8481 60.9293 51.6208C58.5912 51.1083 56.1952 52.7594 55.6817 55.209ZM57.5642 57.3157L57.9062 55.6647C58.1345 54.5251 59.1036 53.7853 60.1306 53.7853C61.4996 53.7853 62.2982 55.2658 62.0131 56.5181L61.6701 58.1701C61.3849 59.4234 60.2443 60.2768 59.1036 60.0495C57.9062 59.7643 57.3359 58.4553 57.5642 57.3157Z" fill="white"/>
<path d="M31.8438 85.1055H29.5625C28.9354 85.1055 28.4219 85.6179 28.4219 86.244C28.4219 86.8712 28.9354 87.3836 29.5625 87.3836H31.8438C32.4709 87.3836 32.9844 86.8712 32.9844 86.244C32.9844 85.6179 32.4709 85.1055 31.8438 85.1055Z" fill="white"/>
<path d="M31.8438 94.2188H29.5625C28.9354 94.2188 28.4219 94.7312 28.4219 95.3573C28.4219 95.9834 28.9354 96.4959 29.5625 96.4959H31.8438C32.4709 96.4959 32.9844 95.9834 32.9844 95.3573C32.9844 94.7312 32.4709 94.2188 31.8438 94.2188Z" fill="white"/>
<mask id="mask1_5335_2939" style="mask-type:luminance" maskUnits="userSpaceOnUse" x="25" y="89" width="9" height="4">
<path d="M25 89.5195H33.0919V92.1645H25V89.5195Z" fill="white"/>
</mask>
<g mask="url(#mask1_5335_2939)">
<path d="M31.8438 89.668H26.1406C25.5135 89.668 25 90.1804 25 90.8065C25 91.4337 25.5135 91.9461 26.1406 91.9461H31.8438C32.4709 91.9461 32.9844 91.4337 32.9844 90.8065C32.9844 90.1804 32.4709 89.668 31.8438 89.668Z" fill="white"/>
</g>
<path d="M48.897 83.6798H55.8544L62.6982 92.7914C63.097 93.3617 63.8388 93.7605 64.5228 93.7605H70.3406C70.6826 93.7605 70.9678 93.6459 71.1961 93.3617L76.6709 87.1533C76.9561 86.8692 77.0129 86.4704 76.8982 86.0716L73.7625 75.2511C73.7047 75.0228 73.591 74.8523 73.4195 74.6808L73.0207 74.3398C72.3936 74.8523 71.5949 75.1943 70.7394 75.3648L71.6517 76.1624L74.5033 86.0716L69.7703 91.4255H64.466L57.5654 82.3129C57.1665 81.7436 56.4247 81.3448 55.7408 81.3448H50.8352C50.4932 82.3129 49.7524 83.1105 48.897 83.6798Z" fill="white"/>
<path d="M82.6011 82.4311L79.1223 74.9137L79.921 74.4013C80.8333 73.832 81.4604 72.6924 81.4604 71.6675V69.7313C81.4604 68.478 80.4345 67.4531 79.1223 67.4531H74.3893C74.7881 68.1361 75.0733 68.9337 75.1301 69.7313H79.1792V71.6675C79.1792 71.8948 78.9519 72.3504 78.7235 72.4651L77.0126 73.49C76.4991 73.7752 76.3286 74.4013 76.5559 74.9137L80.8333 83.9685C81.0048 84.3673 81.4036 84.5957 81.8034 84.6525C82.0307 84.6525 87.2214 84.9945 89.1597 89.7213H80.3198C80.0346 89.7213 79.7495 89.8349 79.579 90.0054L73.5907 95.4161C73.3055 95.6445 72.6784 95.9286 72.3364 95.9286H59.7895C59.3328 95.9286 59.0476 95.5866 58.7625 95.3025L54.3146 90.6894C54.0863 90.461 53.8012 90.3474 53.516 90.3474H38.1175C38.4026 88.6395 39.5433 85.5637 43.4787 84.0832L40.3987 83.1719C36.7485 85.6206 36.0077 89.2656 35.8362 90.5757C35.7226 91.5438 36.4634 92.6824 37.4903 92.6824H53.0593L57.1084 96.8967C57.6787 97.6943 58.8193 98.2636 59.7895 98.2636H72.3364C73.2487 98.2636 74.4462 97.808 75.1301 97.1819L80.7765 92.0562H90.073C90.5855 92.0562 91.099 91.8279 91.3841 91.4301C91.6693 91.0313 91.7829 90.5189 91.6125 90.0632C90.1298 84.7093 85.3958 82.8299 82.6011 82.4311Z" fill="white"/>
<mask id="mask2_5335_2939" style="mask-type:luminance" maskUnits="userSpaceOnUse" x="50" y="31" width="48" height="47">
<path d="M50.019 31H97.9999V77.3443H50.019V31Z" fill="white"/>
</mask>
<g mask="url(#mask2_5335_2939)">
<path d="M51.7474 57.996C52.0894 58.1096 52.3745 58.2233 52.6597 58.3369C52.4882 57.1984 52.3745 56.0588 52.3745 54.9202C52.3745 42.9601 62.0699 33.2782 74.0465 33.2782C86.0221 33.2782 95.7175 42.9601 95.7175 54.9202C95.7175 63.7477 90.4142 71.3219 82.8285 74.6818C82.6002 75.0238 82.3151 75.3658 81.9731 75.7078L82.6581 77.1883C91.6116 73.7716 97.9987 65.0578 97.9987 54.9202C97.9987 41.7079 87.2774 31 74.0465 31C60.8146 31 50.0933 41.7079 50.0933 54.9202C50.0933 55.7746 50.1501 56.6859 50.2637 57.5403L51.7474 57.996Z" fill="white"/>
</g>
<path d="M49.1242 79.7537L50.8341 73.4895L52.6029 73.9452C53.23 74.1156 53.8572 73.7168 53.9708 73.1475C54.1423 72.5214 53.8004 71.8943 53.1732 71.7806L51.4044 71.325L53.3437 64.3769C53.8572 62.5543 52.8302 60.675 51.0624 60.1625L41.4817 57.3151C39.714 56.8026 37.8315 57.9412 37.318 59.6501L33.0407 75.0837C32.5282 76.9063 33.5542 78.7856 35.3219 79.2981L44.9036 82.1465C46.1011 82.4307 48.3824 82.2602 49.1242 79.7537ZM35.3219 75.7109C35.3219 75.7109 39.5425 60.334 39.5993 60.2762C39.7708 59.7069 40.3411 59.3659 40.9114 59.4796L50.4921 62.327C51.0624 62.4975 51.4044 63.1247 51.2339 63.7508C51.2339 63.7508 47.0134 79.1276 46.9566 79.1844C46.7851 79.7537 46.2147 80.1525 45.6444 79.982L36.0637 77.1346C35.4934 76.9631 35.1514 76.337 35.3219 75.7109Z" fill="white"/>
<path d="M81.4036 63.3485C81.8603 63.7473 82.6011 63.7473 83.0009 63.2917C83.4566 62.836 83.3997 62.0952 82.9441 61.6975L77.1263 56.3435C77.2978 55.9447 77.4114 55.4891 77.4114 54.9766C77.4114 54.4074 77.2409 53.8381 77.0126 53.3256L81.632 48.1421C82.0308 47.6865 82.0308 46.9468 81.5183 46.548C81.0616 46.1491 80.3198 46.1491 79.921 46.6616L75.3017 51.844C74.9597 51.6167 74.503 51.5031 74.0474 51.5031C72.1649 51.5031 70.6255 53.0405 70.6255 54.9198C70.6255 56.7992 72.1649 58.3365 74.0474 58.3365C74.6177 58.3365 75.1302 58.1661 75.6436 57.9377C75.6436 57.9377 81.4036 63.2917 81.4036 63.3485ZM74.0474 56.0584C73.4192 56.0584 72.9068 55.5459 72.9068 54.9198C72.9068 54.2937 73.4192 53.7812 74.0474 53.7812C74.6745 53.7812 75.188 54.2937 75.188 54.9198C75.188 55.5459 74.6745 56.0584 74.0474 56.0584Z" fill="white"/>
<mask id="mask3_5335_2939" style="mask-type:luminance" maskUnits="userSpaceOnUse" x="38" y="94" width="15" height="8">
<path d="M38.646 94.8008H52.6642V101.62H38.646V94.8008Z" fill="white"/>
</mask>
<g mask="url(#mask3_5335_2939)">
<path d="M50.2642 94.9023C50.2073 97.351 48.1544 99.345 45.7027 99.345C43.2499 99.345 41.197 97.351 41.1401 94.9023H38.8589C38.9157 98.6042 41.9378 101.622 45.7027 101.622C49.295 101.622 52.2034 98.8894 52.4886 95.358L52.033 94.9023H50.2642Z" fill="white"/>
</g>
<path d="M47.4136 94.8984H43.9917C44.0485 95.8097 44.7893 96.4926 45.7026 96.4926C46.6149 96.4926 47.3557 95.8097 47.4136 94.8984Z" fill="white"/>
<path d="M61.2711 74.2859L60.2442 73.4883L59.275 77.589C59.1614 78.1014 59.3887 78.6139 59.8454 78.8412L63.6661 80.8921C63.7807 81.0057 66.1757 89.2071 66.1757 89.2071H68.5706C68.5706 89.2071 66.1757 81.1194 66.1188 81.0057C65.9473 80.2659 65.6053 79.3547 64.8635 78.9559L61.67 77.247L62.2403 74.7984C61.8983 74.6837 61.5563 74.5132 61.2711 74.2859Z" fill="white"/>
<path d="M86.1368 44.4403L87.733 42.8461C88.1897 42.3904 88.1897 41.7075 87.733 41.2519C87.2774 40.7962 86.5924 40.7962 86.1368 41.2519L84.5395 42.8461C84.0838 43.3017 84.0838 43.9846 84.5395 44.4403C84.9961 44.8959 85.6801 44.8959 86.1368 44.4403Z" fill="white"/>
<path d="M84.311 94.8984H82.0298C82.0876 95.4677 82.5433 95.9234 83.1704 95.9234C83.7986 95.9234 84.2542 95.4677 84.311 94.8984Z" fill="white"/>
<defs>
<filter id="filter0_d_5335_2939" x="0.6" y="0.6" width="140.8" height="140.8" filterUnits="userSpaceOnUse" color-interpolation-filters="sRGB">
<feFlood flood-opacity="0" result="BackgroundImageFix"/>
<feColorMatrix in="SourceAlpha" type="matrix" values="0 0 0 0 0 0 0 0 0 0 0 0 0 0 0 0 0 0 127 0" result="hardAlpha"/>
<feOffset dx="4" dy="3"/>
<feGaussianBlur stdDeviation="5.7"/>
<feComposite in2="hardAlpha" operator="out"/>
<feColorMatrix type="matrix" values="0 0 0 0 0.128333 0 0 0 0 0.119778 0 0 0 0 0.119778 0 0 0 0.25 0"/>
<feBlend mode="normal" in2="BackgroundImageFix" result="effect1_dropShadow_5335_2939"/>
<feBlend mode="normal" in="SourceGraphic" in2="effect1_dropShadow_5335_2939" result="shape"/>
</filter>
</defs>
</svg>

<svg width="142" height="142" fill="none" xmlns="http://www.w3.org/2000/svg"><g filter="url(#a)"><circle cx="67" cy="68" r="59" fill="#152968"/></g><path d="M90.015 56.062h2.28c.628 0 1.141-.512 1.141-1.138 0-.626-.513-1.139-1.14-1.139h-2.281c-.627 0-1.141.513-1.141 1.139s.514 1.138 1.14 1.138ZM84.54 66.998l1.597 1.595c.455.455 1.197.455 1.596 0a1.099 1.099 0 0 0 0-1.595l-1.596-1.594a1.104 1.104 0 0 0-1.597 0 1.1 1.1 0 0 0 0 1.594ZM61.956 44.44c.456.456 1.197.456 1.597 0a1.1 1.1 0 0 0 0-1.594l-1.597-1.594a1.103 1.103 0 0 0-1.596 0 1.099 1.099 0 0 0 0 1.594l1.596 1.594Z" fill="#fff"/><mask id="b" style="mask-type:luminance" maskUnits="userSpaceOnUse" x="76" y="94" width="14" height="8"><path d="M76.998 94.27h12.96v7.348h-12.96v-7.349Z" fill="#fff"/></mask><g mask="url(#b)"><path d="M87.676 94.27c0 .17.057.34.057.512 0 2.505-2.053 4.556-4.562 4.556-1.825 0-3.422-1.082-4.163-2.677l-1.768 1.594c1.198 1.995 3.364 3.36 5.874 3.36 3.764 0 6.844-3.074 6.844-6.833v-.513h-2.282Z" fill="#fff"/></g><path d="M72.906 70.245c0-1.71-1.369-3.076-3.023-3.076-.627 0-2.395-.284-3.593-.513l-3.08-3.246c-.684.456-1.425.798-2.224.968l3.936 4.1c.17.172.399.286.627.343.342.057 3.25.57 4.334.57.399 0 .742.341.742.797 0 .342-.457.74-1.084.797l-5.703-.513-4.334-3.417c-.514-.399-1.198-.285-1.597.17-.4.514-.286 1.197.171 1.596l4.563 3.588c.17.114.398.227.627.227 0 0 6.158.57 6.216.57 1.882.057 3.422-1.31 3.422-2.961ZM55.682 55.209l-.342 1.651c-.285 1.253-.057 2.507.627 3.532a4.199 4.199 0 0 0 2.681 1.822c2.395.456 4.733-1.253 5.246-3.588l.343-1.652c.285-1.252.056-2.506-.628-3.53a4.19 4.19 0 0 0-2.68-1.823c-2.338-.513-4.734 1.138-5.247 3.588Zm1.882 2.107.342-1.651c.229-1.14 1.198-1.88 2.225-1.88 1.369 0 2.167 1.48 1.882 2.733l-.343 1.652c-.285 1.253-1.426 2.107-2.566 1.88-1.198-.286-1.768-1.595-1.54-2.734ZM31.844 85.106h-2.282c-.627 0-1.14.512-1.14 1.138 0 .627.513 1.14 1.14 1.14h2.282c.627 0 1.14-.513 1.14-1.14 0-.626-.513-1.138-1.14-1.138ZM31.844 94.219h-2.282c-.627 0-1.14.512-1.14 1.138 0 .626.513 1.139 1.14 1.139h2.282c.627 0 1.14-.513 1.14-1.139s-.513-1.138-1.14-1.138Z" fill="#fff"/><mask id="c" style="mask-type:luminance" maskUnits="userSpaceOnUse" x="25" y="89" width="9" height="4"><path d="M25 89.52h8.092v2.645H25v-2.646Z" fill="#fff"/></mask><g mask="url(#c)"><path d="M31.844 89.668H26.14c-.627 0-1.141.512-1.141 1.138 0 .628.514 1.14 1.14 1.14h5.704c.627 0 1.14-.512 1.14-1.14 0-.626-.513-1.138-1.14-1.138Z" fill="#fff"/></g><path d="M48.897 83.68h6.957l6.844 9.111c.399.57 1.14.97 1.825.97h5.818c.342 0 .627-.115.855-.4l5.475-6.208c.285-.284.342-.683.227-1.081l-3.135-10.82a1.189 1.189 0 0 0-.344-.571l-.398-.341c-.627.512-1.426.854-2.282 1.025l.913.797 2.851 9.91-4.733 5.353h-5.304l-6.9-9.112c-.4-.57-1.141-.968-1.825-.968h-4.906c-.342.968-1.083 1.766-1.938 2.335Z" fill="#fff"/><path d="m82.601 82.431-3.479-7.517.799-.513c.912-.569 1.54-1.709 1.54-2.733V69.73c0-1.253-1.026-2.278-2.339-2.278H74.39c.4.683.684 1.48.741 2.278h4.05v1.937c0 .227-.228.682-.457.797l-1.71 1.025c-.514.285-.684.911-.457 1.424l4.277 9.055c.172.398.57.627.97.684.228 0 5.418.341 7.357 5.068h-8.84c-.285 0-.57.114-.741.284l-5.988 5.411c-.285.228-.913.513-1.255.513H59.79c-.456 0-.741-.342-1.026-.627l-4.448-4.613a1.125 1.125 0 0 0-.799-.342H38.118c.285-1.707 1.425-4.783 5.36-6.264l-3.08-.911c-3.65 2.449-4.39 6.094-4.562 7.404-.113.968.627 2.106 1.654 2.106h15.57l4.048 4.215c.57.797 1.711 1.367 2.681 1.367h12.547c.913 0 2.11-.456 2.794-1.082l5.647-5.126h9.296c.513 0 1.026-.228 1.311-.626.285-.399.399-.911.228-1.367-1.482-5.354-6.216-7.233-9.01-7.632Z" fill="#fff"/><mask id="d" style="mask-type:luminance" maskUnits="userSpaceOnUse" x="50" y="31" width="48" height="47"><path d="M50.019 31h47.98v46.344H50.02V31Z" fill="#fff"/></mask><g mask="url(#d)"><path d="M51.747 57.996c.342.114.627.227.913.34-.172-1.138-.285-2.277-.285-3.416 0-11.96 9.695-21.642 21.671-21.642 11.976 0 21.671 9.682 21.671 21.642 0 8.828-5.303 16.402-12.888 19.762a6.816 6.816 0 0 1-.856 1.026l.685 1.48c8.954-3.416 15.34-12.13 15.34-22.268 0-13.212-10.72-23.92-23.952-23.92-13.231 0-23.953 10.708-23.953 23.92 0 .855.057 1.766.17 2.62l1.484.456Z" fill="#fff"/></g><path d="m49.124 79.754 1.71-6.264 1.769.455c.627.17 1.254-.228 1.368-.797.171-.627-.17-1.254-.798-1.367l-1.769-.456 1.94-6.948c.513-1.823-.514-3.702-2.282-4.214l-9.58-2.848c-1.768-.512-3.65.626-4.164 2.335l-4.277 15.434c-.513 1.822.513 3.702 2.28 4.214l9.583 2.849c1.197.284 3.478.113 4.22-2.393ZM35.322 75.71s4.22-15.377 4.277-15.435c.172-.57.742-.91 1.312-.796l9.581 2.847c.57.17.912.798.742 1.424 0 0-4.22 15.377-4.277 15.433-.172.57-.742.969-1.313.798l-9.58-2.847c-.57-.172-.913-.798-.742-1.424ZM81.404 63.349c.456.398 1.197.398 1.597-.057a1.1 1.1 0 0 0-.057-1.595l-5.818-5.354c.172-.398.285-.854.285-1.366 0-.57-.17-1.139-.398-1.651l4.619-5.184c.399-.456.399-1.195-.114-1.594-.456-.399-1.198-.399-1.597.114l-4.62 5.182c-.341-.227-.798-.34-1.254-.34a3.429 3.429 0 0 0-3.421 3.416c0 1.88 1.539 3.416 3.421 3.416.57 0 1.083-.17 1.597-.398 0 0 5.76 5.354 5.76 5.41Zm-7.357-7.29c-.628 0-1.14-.513-1.14-1.14 0-.625.512-1.138 1.14-1.138.627 0 1.141.513 1.141 1.139s-.514 1.138-1.14 1.138Z" fill="#fff"/><mask id="e" style="mask-type:luminance" maskUnits="userSpaceOnUse" x="38" y="94" width="15" height="8"><path d="M38.646 94.8h14.018v6.82H38.646V94.8Z" fill="#fff"/></mask><g mask="url(#e)"><path d="M50.264 94.902c-.057 2.449-2.11 4.443-4.561 4.443-2.453 0-4.506-1.994-4.563-4.443H38.86a6.835 6.835 0 0 0 6.844 6.72c3.592 0 6.5-2.733 6.786-6.264l-.456-.456h-1.769Z" fill="#fff"/></g><path d="M47.414 94.898h-3.422a1.692 1.692 0 0 0 1.71 1.595c.913 0 1.654-.683 1.712-1.595ZM61.271 74.286l-1.027-.798-.969 4.101c-.114.512.114 1.025.57 1.252l3.821 2.051c.115.114 2.51 8.315 2.51 8.315h2.395s-2.395-8.088-2.452-8.201c-.172-.74-.514-1.651-1.255-2.05l-3.194-1.709.57-2.449a3.201 3.201 0 0 1-.969-.512ZM86.137 44.44l1.596-1.594a1.099 1.099 0 0 0 0-1.594 1.103 1.103 0 0 0-1.596 0l-1.597 1.594a1.1 1.1 0 0 0 0 1.594c.456.456 1.14.456 1.597 0ZM84.311 94.898H82.03c.058.57.513 1.025 1.14 1.025.629 0 1.084-.455 1.141-1.025Z" fill="#fff"/><defs><filter id="a" x=".6" y=".6" width="140.8" height="140.8" filterUnits="userSpaceOnUse" color-interpolation-filters="sRGB"><feFlood flood-opacity="0" result="BackgroundImageFix"/><feColorMatrix in="SourceAlpha" values="0 0 0 0 0 0 0 0 0 0 0 0 0 0 0 0 0 0 127 0" result="hardAlpha"/><feOffset dx="4" dy="3"/><feGaussianBlur stdDeviation="5.7"/><feComposite in2="hardAlpha" operator="out"/><feColorMatrix values="0 0 0 0 0.128333 0 0 0 0 0.119778 0 0 0 0 0.119778 0 0 0 0.25 0"/><feBlend in2="BackgroundImageFix" result="effect1_dropShadow_5335_2939"/><feBlend in="SourceGraphic" in2="effect1_dropShadow_5335_2939" result="shape"/></filter></defs></svg>
